img/icons/shoe.svg

<svg width="55" height="55" viewBox="0 0 55 55" fill="none" xmlns="http://www.w3.org/2000/svg">
<g clip-path="url(#clip0_233_357)">
<path d="M39.2542 39.9843C39.2542 39.9843 41.7542 35.6542 38.8674 33.9875C37.8859 33.4209 36.8018 32.6987 35.7265 31.8277C33.7986 32.1003 31.5389 31.6809 29.3738 30.4309L29.013 30.2226L32.8773 29.1627C32.4638 28.7123 32.0814 28.2413 31.7073 27.7559L27.3588 28.9211C26.8625 28.4806 26.4346 28.0219 26.0666 27.5592L30.705 26.292C30.4136 25.7966 30.1367 25.3096 29.8848 24.7792L25.1553 26.0709C24.8973 25.5178 24.7426 24.9858 24.6395 24.4644L29.2612 23.226C29.0981 22.7084 28.9517 22.162 28.8425 21.6179L24.5851 22.7586C24.6702 22.2112 24.7986 21.6887 25.0736 21.2124C25.782 19.9856 27.0648 19.2636 28.5979 18.9748C28.6008 18.8032 28.5892 18.6233 28.6003 18.4373L27.0336 16.0509C25.0234 16.6994 21.9248 16.1998 18.7709 14.6291L18.6737 14.6307L17.6634 14.0474C17.6634 14.0474 15.3867 14.6574 12.47 19.7092C11.995 20.532 11.5783 21.2536 11.2777 21.9076L15.5501 24.3743C17.1378 25.291 18.8264 26.7662 20.4739 28.1793C21.9605 29.5379 23.5214 30.901 24.8204 31.651L39.2542 39.9843ZM10.1634 27.0378C10.1634 27.0378 9.32621 26.5544 10.5887 23.4343L14.7168 25.8177C17.6035 27.4843 21.1003 31.4277 23.9871 33.0944L38.0167 41.1944C37.0259 41.7771 35.7688 41.8211 34.7007 41.2044L10.1634 27.0378Z" fill="#1A5AA5"/>
</g>
<defs>
<clipPath id="clip0_233_357">
<rect width="40" height="40" fill="white" transform="translate(20) rotate(30)"/>
</clipPath>
</defs>
</svg>

<svg width="55" height="55" fill="none" xmlns="http://www.w3.org/2000/svg"><g clip-path="url(#clip0_233_357)"><path d="M39.254 39.984s2.5-4.33-.387-5.997a24.48 24.48 0 01-3.14-2.16c-1.928.273-4.188-.146-6.353-1.396l-.361-.208 3.864-1.06c-.413-.45-.796-.922-1.17-1.407L27.36 28.92c-.497-.44-.924-.9-1.292-1.362l4.638-1.267a19.21 19.21 0 01-.82-1.513l-4.73 1.292a6.905 6.905 0 01-.515-1.607l4.621-1.238a15.654 15.654 0 01-.418-1.608l-4.258 1.14c.085-.547.214-1.07.489-1.546.708-1.226 1.99-1.948 3.524-2.237.003-.172-.009-.352.002-.538l-1.566-2.386c-2.01.648-5.11.149-8.263-1.422l-.097.002-1.01-.584s-2.277.61-5.194 5.662c-.475.823-.892 1.545-1.192 2.199l4.272 2.466c1.588.917 3.276 2.392 4.924 3.805 1.486 1.359 3.047 2.722 4.346 3.472l14.434 8.333zm-29.09-12.946s-.838-.484.425-3.604l4.128 2.384c2.886 1.666 6.383 5.61 9.27 7.276l14.03 8.1a3.28 3.28 0 01-3.316.01L10.163 27.038z" fill="#1A5AA5"/></g><defs><clipPath id="clip0_233_357"><path fill="#fff" transform="rotate(30 10 37.32)" d="M0 0h40v40H0z"/></clipPath></defs></svg>
